X:1
T:Sanctuary, 10.10.10.10
T:Sanctuary, 10.10.10.10
T:William Marion Runyan, 1923
T:Public Domain Courtesy of the Cyber Hymnal™
C:William Marion Runyan, 1923
Z:Public Domain
Z:Courtesy of the Cyber Hymnal™
%%score ( 1 2 ) ( 3 4 )
L:1/8
Q:1/4=107
M:4/4
K:D
V:1 treble 
V:2 treble 
V:3 bass 
V:4 bass 
V:1
 [DF]4 [A,E]2 [A,D]2 | [A,D]3 [A,B,] [A,C]4 | [CG]4 [DG]2 [EG]2 | [DF]8 | [DA]4 [CG]2 [DF]2 | %5
 [CF]3 [B,E] [B,E]4 | ([B,D]2 [^G,B,]2) [A,C]2 [B,D]2 | [CE]8 | [DA]4 [DB]2 [DA]2 | %9
 [DA]3 [DF] [CG]4 | [CG]4 [CA]2 [CE]2 | [DF]8 | [DB]4 [Gc]2 [Gd]2 | [Fd]2 [FA]2 [FA]2 [EG]2 | %14
 (F2 D2) E4 | [A,D]8 |] %16
V:2
 x8 | x8 | x8 | x8 | x8 | x8 | x8 | x8 | x8 | x8 | x8 | x8 | x8 | x8 | D4 (C2 A,2) | x8 |] %16
V:3
 [D,A,]4 [D,G,]2 [D,F,]2 | [A,,F,]3 [A,,D,] [A,,E,]4 | [A,,A,]4 [B,,A,]2 [C,A,]2 | [D,A,]8 | %4
 [F,A,]4 [E,A,]2 [D,A,]2 | [G,,G,]3 [G,,G,] [G,,G,]4 | (^G,2 E,2) E,2 [E,G,]2 | (A,4 G,4) | %8
 [D,F,]4 [D,G,]2 [D,F,]2 | [D,F,]3 [F,A,] [E,A,]4 | [A,,A,]4 [A,,E,]2 [A,,A,]2 | [D,A,]8 | %12
 G,4 [G,A,]2 [G,B,]2 | A,2 [A,D]2 [A,D]2 [E,B,]2 | (A,2 F,2) (A,2 G,2) | [D,F,]8 |] %16
V:4
 x8 | x8 | x8 | x8 | x8 | x8 | E,4 E,2 x2 | A,,8 | x8 | x8 | x8 | x8 | G,4 x4 | A,2 x6 | %14
 A,,4 A,,4 | x8 |] %16

